X:17194
T:The Scaife's Reel
R:reel
C:Paul S.Cranford.
O:20th Century Cape Breton
D:The Lighthouse, Cranford Publications
B:The Lighthouse Collection, ISBN 0-9691181-5-5
H:Composed for Jon Scaife, Sheffield
N:Contacts ...
N:..... Cranford Publications <http://www.cranfordpub.com>
Z:This abc transcription is for personal use only,
Z:provided this notice remains attached.
Z:Used by permission of the composer and publisher.
Z:Paul Stewart Cranford 
Q:300
L:1/8
M:C|
K:F#aeo
AB|cABA GE E/E/E|FAcf ecAB|c2 BA GE E/E/E|AFGE F2:|
AB|cFdF cF F/F/F|AcBA GE E/E/E|cFdF cF F/F/F|AFGE F2 AB|!
cFdF cF F/F/F|AcBA GE E/E/E|FAcf efcB|AFGE F2|]!
